X:1
T:Title
%%score { ( 1 3 4 ) | ( 2 5 ) }
L:1/8
Q:1/4=100
M:4/4
K:Bb
V:1 treble nm="Grand Piano"
V:3 treble 
V:4 treble 
V:2 bass 
V:5 bass 
V:1
 [DF]2 [DG][DA] [Dc]2 [DB]2 | [EB]4 [EA]2 z2 | A2 _A=A F2 [Ge][Ge] | [Fd]6 z2 | %4
w: Fred~A.~Fillmore * * * *||||
 [^Fd]2 [FA][GB] [Ac]2 [GB][FA] | [GB]4 [Fd]2 z2 | [=Ed]2 [Ec][EB] [EG]2 [Ed]2 | c6[K:bass] z2 | %8
w: ||||
 [Fd]2 [DF]2 [EG]>[FA] [GB]>[Ge] | [Fd]4 z2 B,2 | [B,=EG]2 [EB]2 [Ed]>[Ec] [EG]>d | c6 z2 | %12
w: ||||
 d2 f2 [Ge]>[Fd] [Fc]>[FB] | [Gc]2 [Gd]2 [Ge]2 [Gd]>[Gc] | B2 B2 z2 A2 | [DB]6 z2 |] %16
w: ||||
V:2
 [B,,B,]2 [B,,B,][B,,F,] [B,,F,]2 [B,,F,]2 | [C,F,]4 [C,F,]2 z2 | %2
 [F,CE]2 [F,=B,E][F,CE] [F,A,E]2 [F,A,][F,A,] | [B,,B,]6 z2 | %4
 [D,A,]2 [D,D][D,D] [D,D]2 [D,D][D,D] | [G,D]4 [G,B,]2 z2 | [C,B,]2 [C,G,][C,G,] [C,B,]2 [C,B,]2 | %7
 [A,E]6 z2 | [B,,B,]2 [B,,B,]2 [E,B,]2 [E,B,]2 | [B,,B,]2 [B,,B,]2 [B,,F,]2 B,,2 | %10
 C,2 [C,G,]2 [C,B,]2 z z/ =E/ | [F,A,F]2 [G,B,]2 [A,C]2 z2 | %12
 [B,F]2 [B,DF]2[K:bass] [B,,B,]>[B,,B,] [C,A,]>[D,B,] | [E,G,]2 [D,=B,]2 [C,C]2 [D,B,]>[D,C] | %14
 [F,DF]2 [F,DF]2 z2 [F,CE]2 | [B,,B,]6 z2 |] %16
V:3
 x8 | x8 | x8 | x8 | x8 | x8 | x8 | z2[K:bass] z F,- F, z z2 | x8 | z4 [DB]4 | x8 | z2 =E2 F2 z2 | %12
 x8 | x8 | x8 | x8 |] %16
V:4
 x8 | x8 | x8 | x8 | x8 | x8 | x8 | z2[K:bass] .=E,2 G,F,_E,C, | x8 | x8 | x8 | x8 | x8 | x8 | x8 | %15
 x8 |] %16
V:5
 x8 | x8 | x8 | x8 | x8 | x8 | x8 | F,4 z4 | x8 | x8 | z4 z2 [C,B,]2 | x8 | x4[K:bass] x4 | x8 | %14
 x8 | x8 |] %16

